X:991
T:Bag of Spuds, The
T:Bag of Potatoes, The
R:reel
Z:id:hn-reel-584
M:C|
K:Ador
A2eA cAeA|ABcd edBA|G2dG BGdG|GABc dcBG|
A2eA cAeA|ABcd edcB|ABcd efge|dBGA BAA2:|
|:a2ea ageg|agbg agef|gedB GABd|gfga bgeg|
a2ea ageg|agbg ageg|d2de g2ge|dBGA BAA2:|
